src/_assets/sidebar/council-motion-icon.svg

<svg width="24" height="24" viewBox="0 0 24 24" fill="none" xmlns="http://www.w3.org/2000/svg">
<path d="M6.41899 17.4627C6.00529 17.4627 5.66929 17.1848 5.66929 16.8415V11.6003C5.66929 11.2577 6.00529 10.9791 6.41899 10.9791C6.8327 10.9791 7.16798 11.2577 7.16798 11.6003V16.8415C7.16798 17.187 6.8327 17.4627 6.41899 17.4627Z" fill="#485F7D"/>
<path d="M18.4812 9.50085H4.52963C3.68639 9.50085 3 8.82235 3 7.98802C3.00315 7.70711 3.08302 7.43268 3.23061 7.19566C3.37819 6.95863 3.58763 6.76842 3.83532 6.64646L10.6265 3.179H10.6359C10.9321 3.05088 11.252 2.99023 11.5735 3.00128C11.8949 3.01232 12.2101 3.09479 12.4972 3.24295L19.1711 6.6494C19.4175 6.77173 19.6255 6.9618 19.7719 7.19826C19.9183 7.43473 19.9973 7.70822 20 7.98802C20.0022 8.82235 19.3201 9.50085 18.4812 9.50085ZM10.8985 4.35516L4.344 7.70427C4.28958 7.72909 4.24285 7.76865 4.20886 7.81867C4.17487 7.86869 4.15492 7.92725 4.15118 7.98802C4.15118 8.17326 4.32097 8.32469 4.52963 8.32469H18.4812C18.5737 8.32952 18.6645 8.2969 18.7337 8.23389C18.8029 8.17087 18.845 8.08254 18.851 7.98802C18.8483 7.92773 18.8294 7.86936 18.7964 7.81931C18.7634 7.76925 18.7176 7.72945 18.6639 7.70427L11.9821 4.29341C11.8333 4.21762 11.6694 4.17817 11.5032 4.17817C11.337 4.17817 11.1731 4.21762 11.0244 4.29341L10.8985 4.35516Z" fill="#485F7D"/>
<path d="M19.3323 21H3.93533C3.59789 21 3.32377 20.6104 3.32377 20.1296C3.32377 19.6489 3.59789 19.2593 3.93533 19.2593H19.3323C19.6698 19.2593 19.9439 19.6489 19.9439 20.1296C19.9453 20.6104 19.6712 21 19.3323 21Z" fill="#485F7D"/>
<path d="M11.5014 17.4627C11.0877 17.4627 10.7525 17.1848 10.7525 16.8415V11.6003C10.7525 11.2577 11.0877 10.9791 11.5014 10.9791C11.9151 10.9791 12.2504 11.2577 12.2504 11.6003V16.8415C12.2504 17.187 11.9151 17.4627 11.5014 17.4627Z" fill="#485F7D"/>
<path d="M16.5839 17.4627C16.1702 17.4627 15.8349 17.1848 15.8349 16.8415V11.6003C15.8349 11.2577 16.1702 10.9791 16.5839 10.9791C16.9976 10.9791 17.3329 11.2577 17.3329 11.6003V16.8415C17.3329 17.187 16.9976 17.4627 16.5839 17.4627Z" fill="#485F7D"/>
</svg>

<svg xmlns="http://www.w3.org/2000/svg" width="24" height="24" fill="none"><path fill="#485F7D" d="M6.419 17.463c-.414 0-.75-.278-.75-.622v-5.24c0-.343.336-.622.75-.622s.749.279.749.621v5.242c0 .345-.335.62-.749.62M18.481 9.5H4.53C3.686 9.5 3 8.823 3 7.989c.003-.28.083-.555.23-.792s.358-.428.605-.55l6.792-3.467h.009a2.17 2.17 0 011.861.064l6.674 3.406c.247.123.454.313.6.55.147.236.226.51.229.789a1.515 1.515 0 01-1.519 1.513m-7.583-5.145l-6.554 3.35a.33.33 0 00-.193.283c0 .185.17.337.379.337h13.95a.35.35 0 00.253-.091.36.36 0 00.117-.246.33.33 0 00-.187-.284l-6.682-3.41a1.06 1.06 0 00-.958 0zM19.332 21H3.935c-.337 0-.611-.39-.611-.87 0-.481.274-.87.611-.87h15.397c.338 0 .612.389.612.87.001.48-.273.87-.612.87m-7.831-3.537c-.413 0-.748-.278-.748-.622v-5.24c0-.343.335-.622.748-.622.414 0 .75.279.75.621v5.242c0 .345-.336.62-.75.62m5.083.001c-.414 0-.75-.278-.75-.622v-5.24c0-.343.336-.622.75-.622s.749.279.749.621v5.242c0 .345-.335.62-.75.62"/></svg>
